dist/svgs/trash-full.svg

<!-- Generated by IcoMoon.io -->
<svg version="1.1" xmlns="http://www.w3.org/2000/svg" width="24" height="24" viewBox="0 0 24 24">
<title>trash-full</title>
<path d="M3 8v15c0 0.552 0.448 1 1 1h16c0.552 0 1-0.448 1-1v-15h-18zM9 19h-2v-6h2v6zM13 19h-2v-6h2v6zM17 19h-2v-6h2v6z"></path>
<path d="M23 4h-6v-3c0-0.552-0.447-1-1-1h-8c-0.553 0-1 0.448-1 1v3h-6c-0.553 0-1 0.448-1 1s0.447 1 1 1h22c0.553 0 1-0.448 1-1s-0.447-1-1-1zM9 2h6v2h-6v-2z"></path>
</svg>

<svg xmlns="http://www.w3.org/2000/svg" width="24" height="24"><path d="M3 8v15a1 1 0 0 0 1 1h16a1 1 0 0 0 1-1V8H3zm6 11H7v-6h2v6zm4 0h-2v-6h2v6zm4 0h-2v-6h2v6zM23 4h-6V1a1 1 0 0 0-1-1H8a1 1 0 0 0-1 1v3H1a1 1 0 1 0 0 2h22a1 1 0 1 0 0-2zM9 2h6v2H9V2z"/></svg>
